Newaita-dark/apps/48/toggldesktop.svg

<svg height="48" viewBox="0 0 48 48" width="48" xmlns="http://www.w3.org/2000/svg" xmlns:xlink="http://www.w3.org/1999/xlink"><linearGradient id="a"><stop offset="0" stop-opacity=".313726"/><stop offset=".222222" stop-opacity=".27451"/><stop offset="1" stop-opacity="0"/></linearGradient><radialGradient id="b" cx="450.908936" cy="189.579361" gradientTransform="matrix(.00000026 -.117199 -.210958 -.00000015 66.784728 95.392994)" gradientUnits="userSpaceOnUse" r="21.166656" xlink:href="#a"/><radialGradient id="c" cx="450.908936" cy="189.579361" gradientTransform="matrix(-.00000026 .117199 .210958 .00000015 -19.155178 -11.291223)" gradientUnits="userSpaceOnUse" r="21.166656" xlink:href="#a"/><radialGradient id="d" cx="450.908936" cy="189.579361" gradientTransform="matrix(-.00000026 -.117199 .210958 -.00000015 -19.155178 95.392994)" gradientUnits="userSpaceOnUse" r="21.166656" xlink:href="#a"/><radialGradient id="e" cx="450.908936" cy="189.579361" gradientTransform="matrix(.00000026 .117199 -.210958 .00000015 66.784725 -11.291224)" gradientUnits="userSpaceOnUse" r="21.166656" xlink:href="#a"/><linearGradient id="f" gradientTransform="matrix(.0200401 0 0 .093759 18.698079 20.158175)" gradientUnits="userSpaceOnUse" x1="255.323059" x2="255.323044" y1="233.5" y2="254.666656"><stop offset="0" stop-opacity=".27451"/><stop offset="1" stop-opacity="0"/></linearGradient><linearGradient id="g" gradientUnits="userSpaceOnUse" x1="254" x2="254" y1="-168.666672" y2="233.5"><stop offset="0" stop-color="#ef5350"/><stop offset="1" stop-color="#f44336"/></linearGradient><linearGradient id="h" gradientUnits="userSpaceOnUse" x1="23.814816" x2="23.814816" y1="42.05096580616" y2="4.34417266504"><stop offset="0" stop-color="#bdbdbd"/><stop offset="1" stop-color="#e0e0e0"/></linearGradient><path d="m27.289062 42.050781h3.96875v-1.984375h-3.96875zm0 0" fill="url(#b)"/><path d="m20.339844 42.050781h-3.96875v1.984375h3.96875zm0 0" fill="url(#c)"/><path d="m20.339844 42.050781h-3.96875v-1.984375h3.96875zm0 0" fill="url(#d)"/><path d="m27.289062 42.050781h3.96875v1.984375h-3.96875zm0 0" fill="url(#e)"/><path d="m20.339844 41.554688h6.949218v2.480468h-6.949218zm0 0" fill="url(#f)"/><path d="m254.017409-168.671091c111.031064 0 201.064133 90.033069 201.064133 201.105795 0 111.031064-90.033069 201.064133-201.064133 201.064133-111.072726 0-201.105795-90.033069-201.105795-201.064133 0-111.072726 90.033069-201.105795 201.105795-201.105795zm0 0" fill="url(#g)" stroke="#333" stroke-linecap="round" stroke-width="3" transform="matrix(.093759 0 0 .093759 0 20.158175)"/><path d="m23.816406 42.050781c-10.445312 0-18.855468-8.410156-18.855468-18.851562 0-.0625 0-.125 0-.1875.101562 10.359375 8.472656 18.667969 18.855468 18.667969 10.382813 0 18.753906-8.308594 18.851563-18.667969v.1875c0 10.441406-8.410157 18.851562-18.851563 18.851562zm0 0" fill-opacity=".196078"/><path d="m23.816406 4.34375c-10.445312 0-18.855468 8.410156-18.855468 18.855469v.183593c.101562-10.359374 8.472656-18.667968 18.855468-18.667968 10.382813 0 18.753906 8.308594 18.851563 18.667968 0-.0625 0-.125 0-.183593 0-10.445313-8.410157-18.855469-18.851563-18.855469zm0 0" fill="#fff" fill-opacity=".392157"/><path d="m23.816406 4.203125c-10.523437 0-18.996094 8.472656-18.996094 18.996094 0 10.519531 8.472657 18.992187 18.996094 18.992187 10.519532 0 18.992188-8.472656 18.992188-18.992187 0-10.523438-8.472656-18.996094-18.992188-18.996094zm0 .28125c10.367188 0 18.710938 8.34375 18.710938 18.714844 0 10.367187-8.34375 18.710937-18.710938 18.710937-10.371094 0-18.714844-8.34375-18.714844-18.710937 0-10.371094 8.34375-18.714844 18.714844-18.714844zm0 0" fill="#212121"/><path d="m23.816406 12.28125c-.550781 0-.992187.445312-.992187.992188v9.925781c0 .546875.441406.992187.992187.992187.546875 0 .992188-.445312.992188-.992187v-9.925781c0-.546876-.445313-.992188-.992188-.992188zm-1.984375 2.207031c-3.988281.894531-6.949219 4.445313-6.949219 8.710938 0 4.945312 3.984376 8.929687 8.933594 8.929687 4.945313 0 8.929688-3.984375 8.929688-8.929687 0-4.265625-2.960938-7.816407-6.945313-8.710938v2.050781c2.875.847657 4.960938 3.5 4.960938 6.660157 0 3.847656-3.097657 6.945312-6.945313 6.945312-3.851562 0-6.949218-3.097656-6.949218-6.945312 0-3.160157 2.089843-5.8125 4.964843-6.660157zm0 0" fill="url(#h)"/><path d="m23.816406 12.28125c-.550781 0-.992187.445312-.992187.992188v.496093c0-.546875.441406-.992187.992187-.992187.546875 0 .992188.445312.992188.992187v-.496093c0-.546876-.445313-.992188-.992188-.992188zm-1.984375 2.207031c-3.988281.894531-6.949219 4.445313-6.949219 8.710938 0 .082031.003907.167969.003907.25.109375-4.15625 3.035156-7.585938 6.945312-8.464844zm3.96875 0v.496094c3.910157.878906 6.832031 4.308594 6.941407 8.464844 0-.082031.003906-.167969.003906-.25 0-4.265625-2.960938-7.816407-6.945313-8.710938zm-8.925781 8.953125c-.003906.085938-.007812.167969-.007812.253906 0 3.847657 3.097656 6.945313 6.949218 6.945313 3.847656 0 6.945313-3.097656 6.945313-6.945313 0-.085937-.003907-.167968-.003907-.253906-.128906 3.734375-3.175781 6.703125-6.941406 6.703125-3.769531 0-6.816406-2.96875-6.941406-6.703125zm0 0" fill="#fff"/><path d="m21.832031 16.644531c-2.730469.808594-4.746093 3.234375-4.945312 6.175781-.003907-.035156-.003907-.074218-.007813-.109374-.007812.125-.011718.246093-.011718.371093 0 .164063.007812.324219.019531.484375.199219-2.941406 2.214843-5.371094 4.945312-6.175781zm3.96875 0v.746094c2.726563.804687 4.742188 3.234375 4.941407 6.175781.011718-.160156.019531-.320312.019531-.484375 0-.125-.003907-.246093-.011719-.371093 0 .035156-.003906.074218-.007812.109374-.199219-2.941406-2.214844-5.367187-4.941407-6.175781zm-2.976562 6.660157v.746093c0 .550781.441406.992188.992187.992188.546875 0 .992188-.441407.992188-.992188v-.746093c0 .550781-.445313.992187-.992188.992187-.550781 0-.992187-.441406-.992187-.992187zm-7.933594.378906c-.003906.121094-.007813.242187-.007813.367187 0 4.945313 3.984376 8.929688 8.933594 8.929688 4.945313 0 8.929688-3.984375 8.929688-8.929688 0-.125-.003906-.246093-.007813-.367187-.195312 4.769531-4.101562 8.550781-8.921875 8.550781-4.824218 0-8.726562-3.78125-8.925781-8.550781zm0 0" fill-opacity=".235294"/><path d="m960.065849 495.070859c-22.202605 0-39.996183 17.951043-39.996183 39.996183v400.119292c0 22.04514 17.793578 39.996183 39.996183 39.996183 22.04514 0 39.996183-17.951043 39.996183-39.996183v-400.119292c0-22.04514-17.951043-39.996183-39.996183-39.996183zm-79.992365 88.967887c-160.772057 36.05955-280.130744 179.195496-280.130744 351.147588 0 199.351052 160.614592 359.965644 360.123109 359.965644 199.351052 0 359.965644-160.614592 359.965644-359.965644 0-171.952092-119.358687-315.088038-279.973279-351.147588v82.669275c115.894451 34.169967 199.980914 141.088896 199.980914 268.478313 0 155.103307-124.869972 279.973278-279.973279 279.973278-155.260772 0-280.130744-124.869971-280.130744-279.973278 0-127.389417 84.243928-234.308346 200.138379-268.478313zm0 0" fill="none" stroke="#212121" stroke-linecap="round" stroke-linejoin="round" stroke-width="11.338583" transform="scale(.0248071)"/></svg>

<?xml version="1.0" encoding="UTF-8"?>
<svg xmlns="http://www.w3.org/2000/svg" xmlns:xlink="http://www.w3.org/1999/xlink" width="48px" height="48px" viewBox="0 0 48 48" version="1.1">
<defs>
<radialGradient id="radial0" gradientUnits="userSpaceOnUse" cx="450.908936" cy="189.579361" fx="450.908936" fy="189.579361" r="21.166656" gradientTransform="matrix(0.000000261256,-0.117199,-0.210958,-0.000000152308,66.784728,95.392994)">
<stop offset="0" style="stop-color:rgb(0%,0%,0%);stop-opacity:0.313726;"/>
<stop offset="0.222222" style="stop-color:rgb(0%,0%,0%);stop-opacity:0.27451;"/>
<stop offset="1" style="stop-color:rgb(0%,0%,0%);stop-opacity:0;"/>
</radialGradient>
<radialGradient id="radial1" gradientUnits="userSpaceOnUse" cx="450.908936" cy="189.579361" fx="450.908936" fy="189.579361" r="21.166656" gradientTransform="matrix(-0.000000261256,0.117199,0.210958,0.000000152308,-19.155178,-11.291223)">
<stop offset="0" style="stop-color:rgb(0%,0%,0%);stop-opacity:0.313726;"/>
<stop offset="0.222222" style="stop-color:rgb(0%,0%,0%);stop-opacity:0.27451;"/>
<stop offset="1" style="stop-color:rgb(0%,0%,0%);stop-opacity:0;"/>
</radialGradient>
<radialGradient id="radial2" gradientUnits="userSpaceOnUse" cx="450.908936" cy="189.579361" fx="450.908936" fy="189.579361" r="21.166656" gradientTransform="matrix(-0.000000261256,-0.117199,0.210958,-0.000000152308,-19.155178,95.392994)">
<stop offset="0" style="stop-color:rgb(0%,0%,0%);stop-opacity:0.313726;"/>
<stop offset="0.222222" style="stop-color:rgb(0%,0%,0%);stop-opacity:0.27451;"/>
<stop offset="1" style="stop-color:rgb(0%,0%,0%);stop-opacity:0;"/>
</radialGradient>
<radialGradient id="radial3" gradientUnits="userSpaceOnUse" cx="450.908936" cy="189.579361" fx="450.908936" fy="189.579361" r="21.166656" gradientTransform="matrix(0.000000261256,0.117199,-0.210958,0.000000152308,66.784725,-11.291224)">
<stop offset="0" style="stop-color:rgb(0%,0%,0%);stop-opacity:0.313726;"/>
<stop offset="0.222222" style="stop-color:rgb(0%,0%,0%);stop-opacity:0.27451;"/>
<stop offset="1" style="stop-color:rgb(0%,0%,0%);stop-opacity:0;"/>
</radialGradient>
<linearGradient id="linear0" gradientUnits="userSpaceOnUse" x1="255.323059" y1="233.5" x2="255.323044" y2="254.666656" gradientTransform="matrix(0.0200401,0,0,0.093759,18.698079,20.158175)">
<stop offset="0" style="stop-color:rgb(0%,0%,0%);stop-opacity:0.27451;"/>
<stop offset="1" style="stop-color:rgb(0%,0%,0%);stop-opacity:0;"/>
</linearGradient>
<linearGradient id="linear1" gradientUnits="userSpaceOnUse" x1="254" y1="-168.666672" x2="254" y2="233.5" gradientTransform="matrix(1,0,0,1,0,0)">
<stop offset="0" style="stop-color:rgb(93.725491%,32.549021%,31.37255%);stop-opacity:1;"/>
<stop offset="1" style="stop-color:rgb(95.686275%,26.274511%,21.176471%);stop-opacity:1;"/>
</linearGradient>
<linearGradient id="linear2" gradientUnits="userSpaceOnUse" x1="960" y1="1695.118164" x2="960" y2="175.118118" gradientTransform="matrix(0.0248071,0,0,0.0248071,0,0.00000000000000282)">
<stop offset="0" style="stop-color:rgb(74.117649%,74.117649%,74.117649%);stop-opacity:1;"/>
<stop offset="1" style="stop-color:rgb(87.843138%,87.843138%,87.843138%);stop-opacity:1;"/>
</linearGradient>
</defs>
<g id="surface1">
<path style=" stroke:none;fill-rule:nonzero;fill:url(#radial0);" d="M 27.289062 42.050781 L 31.257812 42.050781 L 31.257812 40.066406 L 27.289062 40.066406 Z M 27.289062 42.050781 "/>
<path style=" stroke:none;fill-rule:nonzero;fill:url(#radial1);" d="M 20.339844 42.050781 L 16.371094 42.050781 L 16.371094 44.035156 L 20.339844 44.035156 Z M 20.339844 42.050781 "/>
<path style=" stroke:none;fill-rule:nonzero;fill:url(#radial2);" d="M 20.339844 42.050781 L 16.371094 42.050781 L 16.371094 40.066406 L 20.339844 40.066406 Z M 20.339844 42.050781 "/>
<path style=" stroke:none;fill-rule:nonzero;fill:url(#radial3);" d="M 27.289062 42.050781 L 31.257812 42.050781 L 31.257812 44.035156 L 27.289062 44.035156 Z M 27.289062 42.050781 "/>
<path style=" stroke:none;fill-rule:nonzero;fill:url(#linear0);" d="M 20.339844 41.554688 L 27.289062 41.554688 L 27.289062 44.035156 L 20.339844 44.035156 Z M 20.339844 41.554688 "/>
<path style="fill-rule:nonzero;fill:url(#linear1);stroke-width:3;stroke-linecap:round;stroke-linejoin:miter;stroke:rgb(20%,20%,20%);stroke-opacity:1;stroke-miterlimit:4;" d="M 254.017409 -168.671091 C 365.048473 -168.671091 455.081542 -78.638022 455.081542 32.434704 C 455.081542 143.465768 365.048473 233.498837 254.017409 233.498837 C 142.944683 233.498837 52.911614 143.465768 52.911614 32.434704 C 52.911614 -78.638022 142.944683 -168.671091 254.017409 -168.671091 Z M 254.017409 -168.671091 " transform="matrix(0.093759,0,0,0.093759,0,20.158175)"/>
<path style=" stroke:none;fill-rule:nonzero;fill:rgb(0%,0%,0%);fill-opacity:0.196078;" d="M 23.816406 42.050781 C 13.371094 42.050781 4.960938 33.640625 4.960938 23.199219 C 4.960938 23.136719 4.960938 23.074219 4.960938 23.011719 C 5.0625 33.371094 13.433594 41.679688 23.816406 41.679688 C 34.199219 41.679688 42.570312 33.371094 42.667969 23.011719 C 42.667969 23.074219 42.667969 23.136719 42.667969 23.199219 C 42.667969 33.640625 34.257812 42.050781 23.816406 42.050781 Z M 23.816406 42.050781 "/>
<path style=" stroke:none;fill-rule:nonzero;fill:rgb(100%,100%,100%);fill-opacity:0.392157;" d="M 23.816406 4.34375 C 13.371094 4.34375 4.960938 12.753906 4.960938 23.199219 C 4.960938 23.257812 4.960938 23.320312 4.960938 23.382812 C 5.0625 13.023438 13.433594 4.714844 23.816406 4.714844 C 34.199219 4.714844 42.570312 13.023438 42.667969 23.382812 C 42.667969 23.320312 42.667969 23.257812 42.667969 23.199219 C 42.667969 12.753906 34.257812 4.34375 23.816406 4.34375 Z M 23.816406 4.34375 "/>
<path style=" stroke:none;fill-rule:nonzero;fill:rgb(12.941177%,12.941177%,12.941177%);fill-opacity:1;" d="M 23.816406 4.203125 C 13.292969 4.203125 4.820312 12.675781 4.820312 23.199219 C 4.820312 33.71875 13.292969 42.191406 23.816406 42.191406 C 34.335938 42.191406 42.808594 33.71875 42.808594 23.199219 C 42.808594 12.675781 34.335938 4.203125 23.816406 4.203125 Z M 23.816406 4.484375 C 34.183594 4.484375 42.527344 12.828125 42.527344 23.199219 C 42.527344 33.566406 34.183594 41.910156 23.816406 41.910156 C 13.445312 41.910156 5.101562 33.566406 5.101562 23.199219 C 5.101562 12.828125 13.445312 4.484375 23.816406 4.484375 Z M 23.816406 4.484375 "/>
<path style=" stroke:none;fill-rule:nonzero;fill:url(#linear2);" d="M 23.816406 12.28125 C 23.265625 12.28125 22.824219 12.726562 22.824219 13.273438 L 22.824219 23.199219 C 22.824219 23.746094 23.265625 24.191406 23.816406 24.191406 C 24.363281 24.191406 24.808594 23.746094 24.808594 23.199219 L 24.808594 13.273438 C 24.808594 12.726562 24.363281 12.28125 23.816406 12.28125 Z M 21.832031 14.488281 C 17.84375 15.382812 14.882812 18.933594 14.882812 23.199219 C 14.882812 28.144531 18.867188 32.128906 23.816406 32.128906 C 28.761719 32.128906 32.746094 28.144531 32.746094 23.199219 C 32.746094 18.933594 29.785156 15.382812 25.800781 14.488281 L 25.800781 16.539062 C 28.675781 17.386719 30.761719 20.039062 30.761719 23.199219 C 30.761719 27.046875 27.664062 30.144531 23.816406 30.144531 C 19.964844 30.144531 16.867188 27.046875 16.867188 23.199219 C 16.867188 20.039062 18.957031 17.386719 21.832031 16.539062 Z M 21.832031 14.488281 "/>
<path style=" stroke:none;fill-rule:nonzero;fill:rgb(100%,100%,100%);fill-opacity:1;" d="M 23.816406 12.28125 C 23.265625 12.28125 22.824219 12.726562 22.824219 13.273438 L 22.824219 13.769531 C 22.824219 13.222656 23.265625 12.777344 23.816406 12.777344 C 24.363281 12.777344 24.808594 13.222656 24.808594 13.769531 L 24.808594 13.273438 C 24.808594 12.726562 24.363281 12.28125 23.816406 12.28125 Z M 21.832031 14.488281 C 17.84375 15.382812 14.882812 18.933594 14.882812 23.199219 C 14.882812 23.28125 14.886719 23.367188 14.886719 23.449219 C 14.996094 19.292969 17.921875 15.863281 21.832031 14.984375 Z M 25.800781 14.488281 L 25.800781 14.984375 C 29.710938 15.863281 32.632812 19.292969 32.742188 23.449219 C 32.742188 23.367188 32.746094 23.28125 32.746094 23.199219 C 32.746094 18.933594 29.785156 15.382812 25.800781 14.488281 Z M 16.875 23.441406 C 16.871094 23.527344 16.867188 23.609375 16.867188 23.695312 C 16.867188 27.542969 19.964844 30.640625 23.816406 30.640625 C 27.664062 30.640625 30.761719 27.542969 30.761719 23.695312 C 30.761719 23.609375 30.757812 23.527344 30.757812 23.441406 C 30.628906 27.175781 27.582031 30.144531 23.816406 30.144531 C 20.046875 30.144531 17 27.175781 16.875 23.441406 Z M 16.875 23.441406 "/>
<path style=" stroke:none;fill-rule:nonzero;fill:rgb(0%,0%,0%);fill-opacity:0.235294;" d="M 21.832031 16.644531 C 19.101562 17.453125 17.085938 19.878906 16.886719 22.820312 C 16.882812 22.785156 16.882812 22.746094 16.878906 22.710938 C 16.871094 22.835938 16.867188 22.957031 16.867188 23.082031 C 16.867188 23.246094 16.875 23.40625 16.886719 23.566406 C 17.085938 20.625 19.101562 18.195312 21.832031 17.390625 Z M 25.800781 16.644531 L 25.800781 17.390625 C 28.527344 18.195312 30.542969 20.625 30.742188 23.566406 C 30.753906 23.40625 30.761719 23.246094 30.761719 23.082031 C 30.761719 22.957031 30.757812 22.835938 30.75 22.710938 C 30.75 22.746094 30.746094 22.785156 30.742188 22.820312 C 30.542969 19.878906 28.527344 17.453125 25.800781 16.644531 Z M 22.824219 23.304688 L 22.824219 24.050781 C 22.824219 24.601562 23.265625 25.042969 23.816406 25.042969 C 24.363281 25.042969 24.808594 24.601562 24.808594 24.050781 L 24.808594 23.304688 C 24.808594 23.855469 24.363281 24.296875 23.816406 24.296875 C 23.265625 24.296875 22.824219 23.855469 22.824219 23.304688 Z M 14.890625 23.683594 C 14.886719 23.804688 14.882812 23.925781 14.882812 24.050781 C 14.882812 28.996094 18.867188 32.980469 23.816406 32.980469 C 28.761719 32.980469 32.746094 28.996094 32.746094 24.050781 C 32.746094 23.925781 32.742188 23.804688 32.738281 23.683594 C 32.542969 28.453125 28.636719 32.234375 23.816406 32.234375 C 18.992188 32.234375 15.089844 28.453125 14.890625 23.683594 Z M 14.890625 23.683594 "/>
<path style="fill:none;stroke-width:11.338583;stroke-linecap:round;stroke-linejoin:round;stroke:rgb(12.941177%,12.941177%,12.941177%);stroke-opacity:1;stroke-miterlimit:4;" d="M 960.065849 495.070859 C 937.863244 495.070859 920.069666 513.021902 920.069666 535.067042 L 920.069666 935.186334 C 920.069666 957.231474 937.863244 975.182517 960.065849 975.182517 C 982.110989 975.182517 1000.062032 957.231474 1000.062032 935.186334 L 1000.062032 535.067042 C 1000.062032 513.021902 982.110989 495.070859 960.065849 495.070859 Z M 880.073484 584.038746 C 719.301427 620.098296 599.94274 763.234242 599.94274 935.186334 C 599.94274 1134.537386 760.557332 1295.151978 960.065849 1295.151978 C 1159.416901 1295.151978 1320.031493 1134.537386 1320.031493 935.186334 C 1320.031493 763.234242 1200.672806 620.098296 1040.058214 584.038746 L 1040.058214 666.708021 C 1155.952665 700.877988 1240.039128 807.796917 1240.039128 935.186334 C 1240.039128 1090.289641 1115.169156 1215.159612 960.065849 1215.159612 C 804.805077 1215.159612 679.935105 1090.289641 679.935105 935.186334 C 679.935105 807.796917 764.179033 700.877988 880.073484 666.708021 Z M 880.073484 584.038746 " transform="matrix(0.0248071,0,0,0.0248071,0,0)"/>
</g>
</svg>
